assets/img/icons/duotone-icons/Shopping/Cart#3.svg

<?xml version="1.0" encoding="UTF-8"?>
<svg width="24px" height="24px" viewBox="0 0 24 24" version="1.1" xmlns="http://www.w3.org/2000/svg" xmlns:xlink="http://www.w3.org/1999/xlink">
    <!-- Generator: Sketch 52.2 (67145) - http://www.bohemiancoding.com/sketch -->
    <title>Stockholm-icons / Shopping / Cart#3</title>
    <desc>Created with Sketch.</desc>
    <g id="Stockholm-icons-/-Shopping-/-Cart#3" stroke="none" stroke-width="1" fill="none" fill-rule="evenodd">
        <rect id="bound" x="0" y="0" width="24" height="24"></rect>
        <path d="M12,4.56204994 L7.76822128,9.6401844 C7.4146572,10.0644613 6.7840925,10.1217854 6.3598156,9.76822128 C5.9355387,9.4146572 5.87821464,8.7840925 6.23177872,8.3598156 L11.2317787,2.3598156 C11.6315738,1.88006147 12.3684262,1.88006147 12.7682213,2.3598156 L17.7682213,8.3598156 C18.1217854,8.7840925 18.0644613,9.4146572 17.6401844,9.76822128 C17.2159075,10.1217854 16.5853428,10.0644613 16.2317787,9.6401844 L12,4.56204994 Z" id="Path-30" fill="#335EEA" opacity="0.3"></path>
        <path d="M3.5,9 L20.5,9 C21.0522847,9 21.5,9.44771525 21.5,10 C21.5,10.132026 21.4738562,10.2627452 21.4230769,10.3846154 L17.7692308,19.1538462 C17.3034221,20.271787 16.2111026,21 15,21 L9,21 C7.78889745,21 6.6965779,20.271787 6.23076923,19.1538462 L2.57692308,10.3846154 C2.36450587,9.87481408 2.60558331,9.28934029 3.11538462,9.07692308 C3.23725479,9.02614384 3.36797398,9 3.5,9 Z M12,17 C13.1045695,17 14,16.1045695 14,15 C14,13.8954305 13.1045695,13 12,13 C10.8954305,13 10,13.8954305 10,15 C10,16.1045695 10.8954305,17 12,17 Z" id="Combined-Shape" fill="#335EEA"></path>
    </g>
</svg>

<svg width="24" height="24" viewBox="0 0 24 24" xmlns="http://www.w3.org/2000/svg"><g fill="none" fill-rule="evenodd"><path d="M0 0h24v24H0z"/><path d="M12 4.562L7.768 9.64a1 1 0 11-1.536-1.28l5-6a1 1 0 011.536 0l5 6a1 1 0 11-1.536 1.28L12 4.562z" fill="#335EEA" opacity=".3"/><path d="M3.5 9h17a1 1 0 01.923 1.385l-3.654 8.769A3 3 0 0115 21H9a3 3 0 01-2.77-1.846l-3.653-8.77A1 1 0 013.5 9zm8.5 8a2 2 0 100-4 2 2 0 000 4z" fill="#335EEA"/></g></svg>
